X: 38517
T: Stella's Terrace
R: polka
M: 2/4
K: Dmajor
|:"D"D>F ED|A,D FD|"Em7"E>G FE|B,E GE|
"D"F>A BA|"G"B/c/d "D"BA|"G"B/c/d "D"BA|1 "Bm"FA BA:|2 "A"FA "D"DA||
|:"D"d>f ed|"G"B/c/d "D"BA|d>e fd|af "A"ef|
"D"d>f ed|"G"B/c/d "D"BA|"G"B/c/d "D"BA|1 "A"FA "D"DA:|2 "Bm"FA BA||

